public/icons/hobby.svg

<svg width="46" height="47" viewBox="0 0 46 47" fill="none" xmlns="http://www.w3.org/2000/svg">
<path d="M23.1913 36.2209L22.9997 36.4125L22.7888 36.2209C13.6847 27.96 7.66634 22.4975 7.66634 16.9584C7.66634 13.125 10.5413 10.25 14.3747 10.25C17.3263 10.25 20.2013 12.1667 21.2172 14.7734H24.7822C25.798 12.1667 28.673 10.25 31.6247 10.25C35.458 10.25 38.333 13.125 38.333 16.9584C38.333 22.4975 32.3147 27.96 23.1913 36.2209ZM31.6247 6.41669C28.2897 6.41669 25.0888 7.96919 22.9997 10.4034C20.9105 7.96919 17.7097 6.41669 14.3747 6.41669C8.47134 6.41669 3.83301 11.0359 3.83301 16.9584C3.83301 24.1842 10.3497 30.1067 20.2205 39.0575L22.9997 41.5875L25.7788 39.0575C35.6497 30.1067 42.1663 24.1842 42.1663 16.9584C42.1663 11.0359 37.528 6.41669 31.6247 6.41669Z" fill="#FE0072"/>
</svg>

<svg width="46" height="47" fill="none" xmlns="http://www.w3.org/2000/svg"><path d="m23.191 36.22-.191.193-.211-.192C13.685 27.96 7.666 22.498 7.666 16.958c0-3.833 2.875-6.708 6.709-6.708 2.951 0 5.826 1.917 6.842 4.523h3.565c1.016-2.606 3.891-4.523 6.843-4.523 3.833 0 6.708 2.875 6.708 6.708 0 5.54-6.018 11.002-15.142 19.263Zm8.434-29.803c-3.335 0-6.536 1.552-8.625 3.986-2.09-2.434-5.29-3.986-8.625-3.986-5.904 0-10.542 4.619-10.542 10.541 0 7.226 6.517 13.149 16.387 22.1l2.78 2.53 2.779-2.53c9.87-8.951 16.387-14.874 16.387-22.1 0-5.922-4.638-10.541-10.541-10.541Z" fill="#FE0072"/></svg>
